!!!!SEGMENT: pl-kk--kk-i-1--028_anonim--prosa-stirpe-maria.krn
!!!cenid: 15xx:741
!!!COM: Anonim
!!!COM-rismID: pe30004985
!!!CDT:
!!!CNT:
!!!OTL: Prosa/Stirpe Maria
!!!PDT:
!!!AGN:
!!!SMS-siglum: PL-Kk
!!!SMS-shelfmark: Kk.I.1
!!!SMS-shelfwork: 028 W
!!!SMS-variant:
!!!SMS-altvar:
!!!NIFC-rismSourceID: 300257982
!!!NIFC-islandoraID: pl-kk:1
!!!URL-pdf-islandora: https://repozytorium.nifc.pl/islandora/object/pl-kk%3A1/datastream/PDF/view
!!!URL-scan: https://polish.musicsources.pl/pl/lokalizacje/galeria/rekopisy/5736 @EN{Scan on Polish Music Sources Website} @PL{Skany w portalu Dziedzictwo Muzyki Polskiej w otwartym dostępie}
!!!ONB-nifc: UWAGA: Cantus (s. 115v-117r, skan 0118-0119), Altus (s. 110v-112r, skan 0304-0305), Tenor (s. 100r-101r, skan 0490-0491), Bassus (s. 105v-107r, skan 0668-0669).
!!!AIN: 1 alto 1 bass 1 soprn 1 tenor
!!!key: e:phr
**kern	**text	**kern	**text	**text	**kern	**text	**kern	**text
*part4	*part4	*part3	*part3	*part3	*part2	*part2	*part1	*part1
*staff4	*staff4	*staff3	*staff3	*staff3	*staff2	*staff2	*staff1	*staff1
*I"BASSVS	*	*I"TENOR	*	*	*I"ALTVS	*	*I"CANTVS	*
*I'B	*	*I'T	*	*	*I'A	*	*I'C	*
*ICvox	*	*ICvox	*	*	*ICvox	*	*ICvox	*
*Ibass	*	*Itenor	*	*	*Ialto	*	*Isoprn	*
*clefF4	*	*clefC4	*	*	*clefC4	*	*clefC2	*
*e:phr	*	*e:phr	*	*	*e:phr	*	*e:phr	*
*k[]	*	*k[]	*	*	*k[]	*	*k[]	*
*M2/1	*	*M2/1	*	*	*M2/1	*	*M2/1	*
*met(c)	*	*met(c)	*	*	*met(c)	*	*met(c)	*
=1	=1	=1	=1	=1	=1	=1	=1	=1
*xywh-#668:1201,673,4213,749	*	*xywh-#490:6080,1350,3079,807	*	*	*xywh-#304:1506,2162,4130,761	*	*xywh-#118:1426,2133,4246,834	*
!LO:TX:a:t=Proſa	!	!LO:TX:a:t=Prosa&colon;	!	!	!	!	!	!
*	*	*lig	*	*	*	*	*	*
!	!	!LO:TX:t=P:problem=drugi tekst dopisany nad linią tekstu	!	!	!LO:TX:a:t=Proſa&colon;	!	!LO:TX:a:t=Proſa	!
1E	Stir-	1E	Stir-	an-	1B	Stir-	1e	Stir-
2.A\	.	1F	.	.	2A/	.	1c	.
.	.	.	.	.	2A/	-pe	.	.
4G\	-pe	.	.	.	.	.	.	.
*	*	*Xlig	*	*	*	*	*	*
=2	=2	=2	=2	=2	=2	=2	=2	=2
*	*	*lig	*	*	*	*	*	*
2F\	.	1D	-pe	-cti-	2.A/	Ma-	1f	-pe
4E/	.	.	.	.	.	.	.	.
4D/	.	.	.	.	4B\	.	.	.
2C/	.	1G	.	.	2c\	-ri-	2e/	Ma-
2D/	Ma-	.	.	.	2.B\	.	1d	-ri-
*	*	*Xlig	*	*	*	*	*	*
=3	=3	=3	=3	=3	=3	=3	=3	=3
*lig	*	*	*	*	*	*	*	*
1E	-ri-	1G	Ma-	-ſi-	.	.	.	.
.	.	.	.	.	4A/	.	.	.
.	.	.	.	.	1G	.	2c/	-a
*	*	*lig	*	*	*	*	*	*
1D	.	1A	-ri-	-ma	.	.	2d/	.
.	.	.	.	.	2F/	.	1f	Ma-
*Xlig	*	*	*	*	*	*	*	*
=4	=4	=4	=4	=4	=4	=4	=4	=4
1C	-a	1c	.	.	2G/	.	.	.
.	.	.	.	.	1c	.	2e/	.
*	*	*Xlig	*	*	*	*	*	*
2r	.	1G	-a	Ma-	.	.	1d	-ri-
2G\	Ma-	.	.	.	2B\	.	.	.
=5	=5	=5	=5	=5	=5	=5	=5	=5
*	*	*lig	*	*	*	*	*	*
*	*	*	*	*	*custos:A	*	*	*
2E/	-ri-	1G	re-	-ri-	1c	-a,	1e	.
2C/	-a	.	.	.	.	.	.	.
*	*	*custos:c	*	*	*	*	*	*
!	!	!	!	!	!LO:LB:g=original	!	!	!
1.F	re-	1A	.	.	2r	.	1c	-a,
*	*	*	*	*	*xywh-#304:1488,2895,4183,902	*	*	*
.	.	.	.	.	1A	re-	.	.
!	!	!LO:LB:g=original	!	!	!	!	!	!
*	*	*Xlig	*	*	*	*	*	*
=6	=6	=6	=6	=6	=6	=6	=6	=6
*	*	*lig	*	*	*	*	*	*
*	*	*xywh-#490:6068,2053,4223,877	*	*	*	*	*	*
.	.	1c	.	.	.	.	2r	.
*custos:D	*	*	*	*	*	*	*	*
2E/	.	.	.	.	2G/	-gi-	2e/	re-
*	*	*	*	*	*	*	*custos:e	*
*xywh-#668:1201,1349,4250,929	*	*	*	*	*	*	*	*
!LO:LB:g=original	!	!	!	!	!	!	!	!
4D/	.	1d	.	.	0.A	-a	1f	-gi-
4E/	.	.	.	.	.	.	.	.
4F\	.	.	.	.	.	.	.	.
4G\	.	.	.	.	.	.	.	.
!	!	!	!	!	!	!	!LO:LB:g=original	!
*	*	*Xlig	*	*	*	*	*	*
=7	=7	=7	=7	=7	=7	=7	=7	=7
*	*	*	*	*	*	*	*xywh-#118:1461,2875,4165,886	*
2A\	.	1c	-gi-	.	.	.	2e/	-a
4F\	.	.	.	.	.	.	1f	pro-
4G\	.	.	.	.	.	.	.	.
4A\	.	1c	-a,	-a	.	.	.	.
4B\	.	.	.	.	.	.	.	.
1c	.	.	.	.	.	.	2e/	.
=8	=8	=8	=8	=8	=8	=8	=8	=8
.	.	1G	pro-	Ma-	2r	.	2d/	.
2B\	-gi-	.	.	.	2d\	pro-	2g\	.
1c	-a,	1A	-cre-	.	2.c\	.	2e/	.
.	.	.	.	.	.	.	1f	-cre-
.	.	.	.	.	8B/L	-cre-	.	.
.	.	.	.	.	8A/J	.	.	.
=9	=9	=9	=9	=9	=9	=9	=9	=9
1C	pro-	1c	-a-	.	1G	-a-	.	.
.	.	.	.	.	.	.	2e/	-a-
2D/	.	1A	-ta	.	2F/	-ta	2d/	-ta
1F	-cre-	.	.	.	1A	Re-	2c/	.
=10	=10	=10	=10	=10	=10	=10	=10	=10
.	.	1c	re-	-ter	.	.	2r	.
4E\	-a-	.	.	.	4G/	.	2c/	Re-
4D/	.	.	.	.	4F/	-gem	.	.
2E\	-ta	1c	-gem	.	2G/	.	2g\	-gem
2F\	.	.	.	.	2A/	.	2f\	.
=11	=11	=11	=11	=11	=11	=11	=11	=11
2C/	Re-	1c	ge-	De-	2G/	.	1e	ge-
2AA/	-ge(m)	.	.	.	2A/	ge-	.	.
2BB/	ge-	1B	-ne-	.	2D/	-ne-	2.d/	-ne-
*custos:D	*	*	*	*	*	*	*	*
2GG/	-ne-	.	.	.	1d	-ra(n)s	.	.
.	.	.	.	.	.	.	4e/	-rans
!LO:LB:g=original	!	!	!	!	!	!	!	!
=12	=12	=12	=12	=12	=12	=12	=12	=12
*xywh-#668:1233,2185,4255,844	*	*	*	*	*	*	*	*
2D\	-rans	1A	-ra(n)s	.	.	.	2f\	.
2E\	.	.	.	.	2c\	Ie-	1g	.
*	*	*	*	*	*custos:d	*	*	*
!	!	!	!	!	!LO:TX:a:t=24	!	!	!
1D	Ie-	1A	Ie-	-i	0.dl\	-ſu(m)	.	.
.	.	.	.	.	.	.	2f\	Ie-
!	!	!	!	!	!LO:LB:g=original	!	!	!
=13	=13	=13	=13	=13	=13	=13	=13	=13
*	*	*	*	*	*	*	*custos:g	*
!	!	!	!	!	!	!	!LO:TX:t=P:problem=nad longami są liczby które określają ilość semibreves w strofie którą ta nuta kończy	!
!	!	!	!	!	!	!	!LO:TX:a:t=25	!
!LO:TX:a:t=25	!	!LO:TX:a:t=25	!	!	!	!	!	!
0GGl	-ſu(m),	0Gl\	-ſu(m);	.	.	.	0gl\	-ſu(m)
!	!	!	!	!	!	!	!LO:LB:g=original	!
=14	=14	=14	=14	=14	=14	=14	=14	=14
*	*	*	*	*	*	*	*xywh-#118:6070,712,4188,863	*
*	*	*	*	*	*xywh-#304:6007,651,4171,878	*	*	*
1G	Lau-	1G	Lau-	da-	1d	Lau-	1g	Lau-
*	*	*custos:c	*	*	*	*	*	*
2D/	-de	1A	-de	.	2c\	.	1f	-de
2F\	di-	.	.	.	2A/	-de	.	.
!	!	!LO:LB:g=original	!	!	!	!	!	!
=15	=15	=15	=15	=15	=15	=15	=15	=15
*	*	*xywh-#490:6022,2855,4130,801	*	*	*	*	*	*
1C	-gna,	1c	di-	-re	1G	di-	1e	di-
2r	.	1A	-gna	.	2F/	.	1c	-gna
1F	an-	.	.	.	1A	-gna	.	.
=16	=16	=16	=16	=16	=16	=16	=16	=16
.	.	1c	an-	ful-	.	.	2r	.
2F\	-ge-	.	.	.	2A/	an-	1f	an-
1F	-lo-	1c	-ge-	-gens	1A	-ge-	.	.
.	.	.	.	.	.	.	2f/	-ge-
=17	=17	=17	=17	=17	=17	=17	=17	=17
2E\	.	1c	-lo-	in	2G/	-lo-	1g	.
2C/	.	.	.	.	2E/	-ru(m)	.	.
2D/	-ru(m)	1B	-ru(m)	au-	2F/	.	2d/	-lo-
2E\	ſan-	.	.	.	2G/	ſan-	2g\	-ru(m)
=18	=18	=18	=18	=18	=18	=18	=18	=18
*	*	*	*	*	*col	*	*	*
2F\	.	1A	ſan-	-la	3A/	.	2f\	ſanc-
.	.	.	.	.	3B/	.	.	.
2E\	-cto-	.	.	.	.	.	1g	-to-
.	.	.	.	.	3c/	.	.	.
*	*	*	*	*	*Xcol	*	*	*
1D	.	1A	-cto-	(Su-	1d	-cto-	.	.
.	.	.	.	.	.	.	2f\	.
=19	=19	=19	=19	=19	=19	=19	=19	=19
*custos:D	*	*	*	*	*	*	*	*
*	*	*	*	*	*custos:d	*	*	*
!	!	!	!	!	!LO:TX:a:t=11	!	!	!
!LO:TX:a:t=11	!	!LO:TX:a:t=11	!	!	!	!	!LO:TX:a:t=11	!
0GGl	-rum	0Gl\	-ru(m),	-i?)	0Bl\	-ru(m),	0gl\	-rum
!LO:LB:g=original	!	!	!	!	!	!	!	!
*clefF3	*	*lig	*	*	*	*	*	*
!	!	!	!	!	!	!	!LO:LB:g=original	!
=20	=20	=20	=20	=20	=20	=20	=20	=20
*xywh-#668:1264,2892,4213,797	*	*	*	*	*xywh-#304:6031,1454,4154,779	*	*	*
1D	Et	1F	Et	O	1d	Et	1f	Et
*	*	*	*	*	*	*	*custos:e	*
4D/	nos	1A	.	.	2d\	.	1f	nos
4E/	.	.	.	.	.	.	.	.
4F/	.	.	.	.	2d\	nos	.	.
4G\	.	.	.	.	.	.	.	.
*	*	*Xlig	*	*	*	*	*	*
!	!	!	!	!	!	!	!LO:LB:g=original	!
=21	=21	=21	=21	=21	=21	=21	=21	=21
*	*	*	*	*	*	*	*xywh-#118:6058,1454,4217,811	*
4A\	.	1c	nos	.	2c\	pec-	2.e/	pec-
4B\	.	.	.	.	.	.	.	.
1c	pec-	.	.	.	2.e\	-ca-	.	.
.	.	.	.	.	.	.	4f\	.
.	.	1G	pec-	.	.	.	2g\	.
.	.	.	.	.	4d\	.	.	.
2B\	-ca-	.	.	.	1d	-to-	2g\	.
=22	=22	=22	=22	=22	=22	=22	=22	=22
1A	-to-	1A	-ca-	Ma-	.	.	1e	-ca-
.	.	.	.	.	2c\	.	.	.
1D	-res,	1A	-to-	-ri-	1d	.	2f\	-to-
.	.	.	.	.	.	.	2f\	-res
=23	=23	=23	=23	=23	=23	=23	=23	=23
*	*	*custos:F	*	*	*	*	*	*
2r	.	1F	-res,	.	1A	-res	2d/	ti-
2F/	ti-	.	.	.	.	.	1f	-bi
!	!	!LO:LB:g=original	!	!	!	!	!	!
*	*	*lig	*	*	*	*	*	*
*	*	*xywh-#491:1408,504,4159,912	*	*	*	*	*	*
2D/	-bi	1F	ti-	.	2r	.	.	.
1F	de-	.	.	.	2c\	ti-	4e/	de-
.	.	.	.	.	.	.	4d/	.
=24	=24	=24	=24	=24	=24	=24	=24	=24
.	.	1A	.	.	2A/	-bi	2.c/	-uo-
4E/	.	.	.	.	2.c\	de-	.	.
4D/	.	.	.	.	.	.	4d/	.
*	*	*Xlig	*	*	*	*	*	*
4C/	.	1c	-bi	.	.	.	4e/	.
4D/	.	.	.	.	4B\	.	4f\	.
4E/	.	.	.	.	4G/	.	2.g\	.
4F/	.	.	.	.	4A/	.	.	.
=25	=25	=25	=25	=25	=25	=25	=25	=25
*custos:G	*	*	*	*	*	*	*	*
2G\	-uo-	1G	de-	.	4B\	.	.	.
.	.	.	.	.	4c\	.	4f\	.
!LO:LB:g=original	!	!	!	!	!	!	!	!
*clefF4	*	*	*	*	*	*	*	*
*xywh-#668:5911,653,4218,865	*	*	*	*	*	*	*	*
2G\	.	.	.	.	1d	.	4d/	-tos,
.	.	.	.	.	.	.	4e/	.
2D/	-tos,	1A	-uo-	-a	.	.	4f\	.
*	*	*	*	*	*	*	*custos:a	*
.	.	.	.	.	.	.	4g\	.
*	*	*	*	*	*custos:A	*	*	*
*	*	*	*	*	*	*	*xywh-#118:6028,2165,4165,892	*
!	!	!	!	!	!	!	!LO:LB:g=original	!
2D/	in-	.	.	.	2d\	-uo-	2.a\	in
!	!	!	!	!	!LO:LB:g=original	!	!	!
=26	=26	=26	=26	=26	=26	=26	=26	=26
*	*	*	*	*	*xywh-#304:5996,2174,4200,785	*	*	*
2F\	.	1F	-tos,	.	2A/	-tos	.	.
.	.	.	.	.	.	.	4g\	.
1A	-tu-	.	.	.	1c	.	2.f\	.
.	.	1F	in-	flos	.	.	.	.
.	.	.	.	.	.	.	4e/	.
4G\	-e-	.	.	.	4B\	in-	1d	tu-
4F\	-re	.	.	.	4A/	-tu-	.	.
=27	=27	=27	=27	=27	=27	=27	=27	=27
1E	.	1G	-tu-	.	1G	-e-	.	.
.	.	.	.	.	.	.	2c/	-e-
2D/	re	1A	-e-	.	2F/	-re	2d/	-re
2C/	be-	.	.	.	2c\	be-	2e/	be-
=28	=28	=28	=28	=28	=28	=28	=28	=28
2D/	-nig-	1F	-re	.	2A/	.	2f\	.
2F/	.	.	.	.	2.d\	.	2a\	.
2E/	.	1G	be-	V-	.	.	2.g\	-ni-
.	.	.	.	.	4c\	.	.	.
2C/	.	.	.	.	1c	.	.	.
.	.	.	.	.	.	.	8f/L	.
.	.	.	.	.	.	.	8e/J	.
=29	=29	=29	=29	=29	=29	=29	=29	=29
1G	.	1G	-ni-	-ni-	.	.	1d	.
.	.	.	.	.	2B\	-ni-	.	.
*custos:G	*	*	*	*	*	*	*	*
!LO:TX:a:t=20	!	!LO:TX:a:t=20	!	!	!LO:TX:a:t=20	!	!LO:TX:a:t=20	!
1Cl\	-na:	1El	-gna,	-qua	1cl\	-gna,	1el\	-gna,
!LO:LB:g=original	!	!	!	!	!	!	!	!
=30	=30	=30	=30	=30	=30	=30	=30	=30
*xywh-#668:5912,1440,4181,792	*	*	*	*	*	*	*	*
1G	Pa-	1C	Pa-	ve-	1c	Pa-	1e	Pa-
2F\	.	1D	-tris	.	2A/	.	2d/	-tris
2.A\	-tris	.	.	.	2d\	-tris	2.f\	.
=31	=31	=31	=31	=31	=31	=31	=31	=31
*	*	*custos:F	*	*	*	*	*	*
.	.	1F	tu-	.	4c\	.	.	.
*	*	*	*	*	*	*	*custos:d	*
4G\	.	.	.	.	4B\	tu-	4e/	tu-
*	*	*	*	*	*	*	*xywh-#118:6039,2918,4171,880	*
!	!	!	!	!	!	!	!LO:LB:g=original	!
4F\	tu-	.	.	.	4A/	.	4d/	.
*	*	*	*	*	*custos:A	*	*	*
4E\	.	.	.	.	4G/	.	4c/	.
*	*	*xywh-#491:1396,1283,4217,865	*	*	*xywh-#304:6005,2905,4189,826	*	*	*
!	!	!LO:LB:g=original	!	!	!	!	!	!
!	!	!	!	!	!LO:LB:g=original	!	!	!
1D	.	0F	-i	-lus	2A/	-i	4d/	.
.	.	.	.	.	.	.	4e/	.
.	.	.	.	.	1A	Sa-	1f	.
=32	=32	=32	=32	=32	=32	=32	=32	=32
1D	-i	.	.	.	.	.	.	.
.	.	.	.	.	2B\	-lo-	2d/	.
1C	Sa-	1E	Sa-	ro-	2c\	-mo-	2e/	-i
.	.	.	.	.	2e\	.	2g\	Sa-
=33	=33	=33	=33	=33	=33	=33	=33	=33
1D	-lo-	1F	-lo-	.	2.d\	.	1f	-lo-
.	.	.	.	.	4c\	.	.	.
1E	-mo-	1G	-mo-	.	1B	.	1e	.
=34	=34	=34	=34	=34	=34	=34	=34	=34
2AA/	-(n)is	1E	-nis	-ſa	2A/	-nis	2c/	-mo-
1C	in	.	.	.	2.G/	in	1e	-nis
.	.	1G	in	Vel-	.	.	.	.
.	.	.	.	.	4A/	.	.	.
2BB/	te	.	.	.	2B/	.	2d/	in
=35	=35	=35	=35	=35	=35	=35	=35	=35
2AA/	lu-	1E	te	.	2c\	.	2c/	te
2GG/	.	.	.	.	2G/	te	2B/	lu-
1FF	.	1F	lu-	-le	1A	lu-	2A/	-cet
.	.	.	.	.	.	.	1c	ſo-
=36	=36	=36	=36	=36	=36	=36	=36	=36
1GG	-cet	1D	-cet	.	2G/	-cet	.	.
.	.	.	.	.	2.B/	.	2B/	-phi-
2AA/	.	1C	ſo-	.	.	.	2c/	-a
.	.	.	.	.	4A/	ſo-	.	.
*custos:B	*	*	*	*	*	*	*custos:d	*
2C/	ſo-	.	.	.	1A	.	2e/	ſo-
!LO:LB:g=original	!	!	!	!	!	!	!LO:LB:g=original	!
=37	=37	=37	=37	=37	=37	=37	=37	=37
*xywh-#668:5901,2180,4203,770	*	*	*	*	*	*	*xywh-#119:1411,715,4235,776	*
1BB	-phi-	1D	-phi-	li-	.	.	1d	-ſo-
.	.	.	.	.	2G/	-phi-	.	.
*	*	*	*	*	*custos:c	*	*	*
1AA	-a,	1E	-a,	-u(m)?	2A/	-a	2c/	-phi-
*	*	*	*	*	*xywh-#305:1428,677,4165,761	*	*	*
!	!	!	!	!	!LO:LB:g=original	!	!	!
.	.	.	.	.	2c\	et	2e/	-a,
=38	=38	=38	=38	=38	=38	=38	=38	=38
2r	.	1C	et	Tar-	2c\	E-	2e/	et
2E\	Et	.	.	.	2c\	-ze-	2e/	E-
2F\	E-	1D	E-	.	1A	-chi-	1.d	-ze-
2F\	-ze-	.	.	.	.	.	.	.
=39	=39	=39	=39	=39	=39	=39	=39	=39
2D/	-chi-	1F	-ze-	.	2A/	-(ae)	.	.
2.D/	-(ae)	.	.	.	1d	a-	1f	-chi-
.	.	1F	-chi-	-de	.	.	.	.
4E\	.	.	.	.	.	.	.	.
4F\	.	.	.	.	4c\	.	4e/	-(ae)
4G\	.	.	.	.	4B\	.	4d/	.
=40	=40	=40	=40	=40	=40	=40	=40	=40
*	*	*custos:E	*	*	*	*	*	*
1A	.	1F	-e	pre-	2A/	.	2c/	.
.	.	.	.	.	2F/	-pud	2d/	a-
*	*	*xywh-#491:1425,2015,4206,865	*	*	*	*	*	*
!	!	!LO:LB:g=original	!	!	!	!	!	!
2AA/	a-	1E	a-	.	2A/	De-	1e	-pud
2C/	-pud	.	.	.	2G/	-u(m)	.	.
=41	=41	=41	=41	=41	=41	=41	=41	=41
1D	.	1F	-pud	.	2.d\	cor-	1A	De-
.	.	.	.	.	4c\	-re-	.	.
2GG/	De-	1G	De-	.	2.B\	.	1d	-u(m)
2G\	-u(m)	.	.	.	.	.	.	.
.	.	.	.	.	4A/	.	.	.
=42	=42	=42	=42	=42	=42	=42	=42	=42
2.G\	cor-	1E	-u(m)	.	4G/	.	2r	.
.	.	.	.	.	4A/	.	.	.
*	*	*	*	*	*lig	*	*	*
.	.	.	.	.	1B	.	2g\	cor-
*custos:E	*	*	*	*	*	*	*	*
4F\	-re-	.	.	.	.	.	.	.
*xywh-#668:5948,2906,4208,871	*	*	*	*	*	*	*	*
!LO:LB:g=original	!	!	!	!	!	!	!	!
2.E\	.	1G	cor-	-ces	.	.	2.g\	-re-
.	.	.	.	.	1c	.	.	.
4D/	.	.	.	.	.	.	4f\	.
*	*	*	*	*	*Xlig	*	*	*
=43	=43	=43	=43	=43	=43	=43	=43	=43
2C/	.	1G	-rec-	ad	.	.	2e/	.
*	*	*	*	*	*custos:A	*	*	*
2BB/	.	.	.	.	2d\	-ctum	2d/	.
*	*	*	*	*	*	*	*custos:b	*
*	*	*	*	*	*xywh-#305:1439,1392,4136,836	*	*	*
!	!	!	!	!	!LO:LB:g=original	!	!LO:LB:g=original	!
1AA	.	1E	-tu(m)	.	1A	.	1c	.
=44	=44	=44	=44	=44	=44	=44	=44	=44
*	*	*	*	*	*	*	*xywh-#119:1417,1451,4194,816	*
2GG/	-ctum	1G	ſed	.	2B\	.	2B/	-ctum,
1C	.	.	.	.	2G/	.	1e	ſed
.	.	1E	nun-	.	1c	ſed	.	.
2AA/	ſed	.	.	.	.	.	2c/	nu(n)-
=45	=45	=45	=45	=45	=45	=45	=45	=45
2D/	nu(n)-	1F	-q(uam)	Do-	1A	nun-	2d/	-q(uam)
2D/	-q(uam)	.	.	.	.	.	2d/	in
1GG	in	1D	in	.	2d\	-q(uam)	1B	te,
.	.	.	.	.	2d\	in	.	.
=46	=46	=46	=46	=46	=46	=46	=46	=46
!	!	!	!	!	!	!	!LO:TX:t=P:problem=znak proporcji	!
*	*	*	*	*	*	*	*Xtuplet	*
1G	te	1C	te	.	2G/	te	3.c/	cor-
.	.	.	.	.	1c	cor-	6d/	.
.	.	.	.	.	.	.	3e/	.
2.F\	cor-	1D	cor-	-mi-	.	.	3.d/	-rum-
.	.	.	.	.	2B\	-ru(m)-	6e/	.
!	!	!	!	!	!	!	!LO:TX:t=P:problem=skasowanie znaku proporcji	!
.	.	.	.	.	.	.	3f\	.
8E\L	-rum-	.	.	.	.	.	.	.
8D\J	.	.	.	.	.	.	.	.
=47	=47	=47	=47	=47	=47	=47	=47	=47
*	*	*	*	*	*	*	*lig	*
1C	-pen-	1E	-ru(m)-	-ne	1c	-pen-	1e	-pen-
!	!	!	!	!	!LO:TX:a:t=36	!	!	!
1D	.	1F	-pen-	...?	0.Al\	-d(um)	1d	.
*	*	*	*	*	*	*	*Xlig	*
=48	=48	=48	=48	=48	=48	=48	=48	=48
*custos:D	*	*custos:D	*	*	*	*	*custos:d	*
!	!	!	!	!	!	!	!LO:TX:a:t=37	!
!LO:TX:a:t=37	!	!LO:TX:a:t=37	!	!	!	!	!LO:TX:t=P:problem=# below	!
0AAl	-dum	0El	-du(m),	.	.	.	0c#X;l\	-dum
!LO:LB:g=original	!	!	!	!	!	!	!	!
!	!	!LO:LB:g=original	!	!	!	!	!LO:LB:g=original	!
=49	=49	=49	=49	=49	=49	=49	=49	=49
*	*	*lig	*	*	*	*	*	*
*xywh-#669:1231,702,4197,821	*	*xywh-#491:1398,2763,4183,976	*	*	*	*	*xywh-#119:1418,2175,4246,793	*
1D	Sed	1D	Sed	pro	1d	Sed	2d/	Sed
.	.	.	.	.	.	.	1f	.
1F	.	1A	.	.	2c\	.	.	.
.	.	.	.	.	2A/	quid	4e/	quid
.	.	.	.	.	.	.	4d/	.
*	*	*Xlig	*	*	*	*	*	*
=50	=50	=50	=50	=50	=50	=50	=50	=50
1C	quid	1c	quid	.	2.e\	.	4e/	.
.	.	.	.	.	.	.	4f/	.
.	.	.	.	.	.	.	1g	nos
.	.	.	.	.	8d\L	nos	.	.
.	.	.	.	.	8c\J	.	.	.
*	*	*	*	*	*custos:B	*	*	*
*	*	*	*	*	*xywh-#305:1428,2135,4235,807	*	*	*
1E	.	1G	nos	ſa-	2B\	i-	.	.
!	!	!	!	!	!LO:LB:g=original	!	!	!
.	.	.	.	.	2c\	.	2e/	iſ-
=51	=51	=51	=51	=51	=51	=51	=51	=51
2D/	noss	1A	iſ-	-lu-	2d\	-ſtos	2f\	-tos
2.F\	iſ-	.	.	.	1A	.	2c/	.
.	.	1F	-tos	.	.	.	2d/	re-
4E/	-tos	.	.	.	.	.	.	.
4D/	re-	.	.	.	2A/	re-	2.f\	-cen-
4C/	.	.	.	.	.	.	.	.
=52	=52	=52	=52	=52	=52	=52	=52	=52
*	*	*	*	*	*lig	*	*	*
2D/	.	1F	re-	-te	1A	-cen-	.	.
.	.	.	.	.	.	.	4e/	-ſe-
2F\	.	.	.	.	.	.	1d	.
1E	-cen-	1G	-ce(n)-	.	1G	.	.	.
.	.	.	.	.	.	.	2c/	.
*	*	*	*	*	*Xlig	*	*	*
=53	=53	=53	=53	=53	=53	=53	=53	=53
2D/	-ſe-	1A	-ſe-	fi-	2F/	-ſee-	2d/	-mus
2C/	-nus	.	.	.	4c\	-mus	2e/	.
.	.	.	.	.	4B\	.	.	.
1D	.	1F	-mus	.	4A/	he-	2.f\	he-
.	.	.	.	.	4G/	.	.	.
.	.	.	.	.	2A/	.	.	.
.	.	.	.	.	.	.	4e/	.
=54	=54	=54	=54	=54	=54	=54	=54	=54
2GG/	.	1G	he-	-de-	2B\	.	2d/	.
*	*	*	*	*	*	*	*custos:d	*
2C/	he-	.	.	.	1c	.	2c/	.
*	*	*	*	*	*	*	*xywh-#119:1488,2929,4107,787	*
!	!	!	!	!	!	!	!LO:LB:g=original	!
1GG	-ro-	1G	-ro-	-li-	.	.	1d	-ro-
.	.	.	.	.	2B\	-ro-	.	.
=55	=55	=55	=55	=55	=55	=55	=55	=55
*custos:D	*	*	*	*	*	*	*	*
!LO:TX:a:t=13	!	!LO:TX:a:t=13	!	!	!LO:TX:a:t=13	!	!LO:TX:a:t=13	!
0Cl\	-as	0El	-as,	-u(m)	0cl\	-as,	0el\	-as
!LO:LB:g=original	!	!	!	!	!	!	!	!
=56	=56	=56	=56	=56	=56	=56	=56	=56
*	*	*lig	*	*	*	*	*	*
*xywh-#669:1248,1398,4202,832	*	*	*	*	*	*	*	*
1D	Cum	1D	Cu(m)	il-	1A	Cu(m)	1d	Cum
1D	tu-	1A	.	.	2.F/	.	1f	.
*	*	*	*	*	*custos:A	*	*	*
.	.	.	.	.	4G/	tu-	.	.
!	!	!	!	!	!	!	!	!
!	!	!	!	!	!LO:LB:g=original	!	!	!
*	*	*Xlig	*	*	*	*	*	*
=57	=57	=57	=57	=57	=57	=57	=57	=57
*	*	*	*	*	*xywh-#305:1459,2854,4171,888	*	*	*
2AA/	.	1c	tu-	.	2A/	-us	2e/	tu-
1C	-us	.	.	.	2E/	.	2.e/	-us
*	*	*custos:A	*	*	*	*	*	*
.	.	1G	-us	.	2C/	.	.	.
.	.	.	.	.	.	.	4d/	.
2BB/	na-	.	.	.	2D/	na-	1d	na-
!	!	!LO:LB:g=original	!	!	!	!	!	!
=58	=58	=58	=58	=58	=58	=58	=58	=58
*	*	*xywh-#491:6049,602,4270,836	*	*	*	*	*	*
1AA	.	1A	na-	.	1E	.	.	.
.	.	.	.	.	.	.	2c/	.
1D	-tus,	1F	-tus	-lu(m)	2D/	-tus	2d/	-tus
.	.	.	.	.	1A	om-	1f	om-
=59	=59	=59	=59	=59	=59	=59	=59	=59
1D	.	1F	om-	pla-	.	.	.	.
.	.	.	.	.	2B\	.	4e/	.
.	.	.	.	.	.	.	4d/	.
2C/	om-	1G	-(n)es	.	1c	-(n)es	2e/	-nes
2E\	-nes	.	.	.	.	.	2g\	pre-
=60	=60	=60	=60	=60	=60	=60	=60	=60
4D/	pr(ae)-	1A	pr(ae)-	.	1d	pr(ae)-	1f	.
4E/	.	.	.	.	.	.	.	.
4F\	.	.	.	.	.	.	.	.
4G\	-cel-	.	.	.	.	.	.	.
4A\	.	1c	-cel-	.	2c\	-cel-	2.e/	-cel-
4B\	.	.	.	.	.	.	.	.
1c	.	.	.	.	2.e\	-lat	.	.
*	*	*	*	*	*	*	*custos:g	*
.	.	.	.	.	.	.	4f/	-lat
!	!	!	!	!	!	!	!LO:LB:g=original	!
=61	=61	=61	=61	=61	=61	=61	=61	=61
*	*	*	*	*	*	*	*xywh-#119:5979,652,4194,869	*
.	.	1G	-lat	-ca	.	.	2g\	.
.	.	.	.	.	4d\	.	.	.
2B\	-lat	.	.	.	1d	il-	2g\	il-
1A	il-	1A	il-	te	.	.	1e	-los
.	.	.	.	.	2c\	-los	.	.
=62	=62	=62	=62	=62	=62	=62	=62	=62
1D	-los	1F	-los,	.	1d	.	1f	at-
2r	.	1F	at-	pre-	2c\	.	2.f/	-q(ue)
*custos:E	*	*	*	*	*	*	*	*
1F	at-	.	.	.	2A/	.	.	.
.	.	.	.	.	.	.	4e/	.
!LO:LB:g=original	!	!	!	!	!	!	!	!
=63	=63	=63	=63	=63	=63	=63	=63	=63
.	.	1G	-q(ue)	.	2B\	at-	2d/	.
*	*	*	*	*	*custos:d	*	*	*
*xywh-#669:1254,2185,4242,872	*	*	*	*	*	*	*	*
2E/	-q(ue)	.	.	.	2c\	-q(ue)	2e/	.
*	*	*	*	*	*xywh-#305:5940,619,4183,854	*	*	*
!	!	!	!	!	!LO:LB:g=original	!	!	!
2D/	cunc-	1A	conc-	.	2d\	cunc-	2f/	cunc-
2C/	.	.	.	.	2e\	.	2e/	.
=64	=64	=64	=64	=64	=64	=64	=64	=64
1D	-ctos	1F	-tos	.	2A/	-tos	1d	.
.	.	.	.	.	4d\	.	.	.
.	.	.	.	.	4c\	.	.	.
2.E/	per	1G	per	-ca-	4B/	per	2.g\	-ctos
.	.	.	.	.	4A/	.	.	.
.	.	.	.	.	2B/	.	.	.
4D/	.	.	.	.	.	.	4f\	per
=65	=65	=65	=65	=65	=65	=65	=65	=65
2C/	or-	1G	or-	-mur	2c\	.	2e/	.
2BB/	-bem,	.	.	.	2G/	.	2d/	.
*	*	*custos:G	*	*	*	*	*	*
!	!	!LO:TX:a:t=20	!	!	!	!	!	!
1AA	.	0.El/	-bem	.	1A	or-	1c	or-
!	!	!LO:LB:g=original	!	!	!	!	!	!
=66	=66	=66	=66	=66	=66	=66	=66	=66
*	*	*	*	*	*	*	*custos:g	*
!	!	!	!	!	!LO:TX:t=P:problem=# below	!	!LO:TX:a:t=21	!
!LO:TX:a:t=21	!	!	!	!	!LO:TX:a:t=21	!	!	!
0El\	.	.	.	.	0G#X;l\	-bem	0Bl/	-bem
!	!	!	!	!	!	!	!LO:LB:g=original	!
=67	=67	=67	=67	=67	=67	=67	=67	=67
*	*	*xywh-#491:6043,1374,4270,836	*	*	*	*	*xywh-#119:5985,1428,4240,816	*
1E	Nos	1G	Nos	ut	2.B\	Nos	1g	Nos
.	.	.	.	.	4c\	.	.	.
1D	.	1A	hac	.	2d\	.	1f	.
.	.	.	.	.	2D/	hac	.	.
=68	=68	=68	=68	=68	=68	=68	=68	=68
*	*	*	*	*	*custos:G	*	*	*
2.C/	hac	1c	di-	e-	2E/	.	2.e/	.
*	*	*	*	*	*xywh-#305:5939,1398,4154,842	*	*	*
!	!	!	!	!	!LO:LB:g=original	!	!	!
.	.	.	.	.	1G	di-	.	.
4BB/	.	.	.	.	.	.	4d/	hac
4AA/	di-	1c	-e	-ius	.	.	4c/	.
4GG/	-e	.	.	.	.	.	4B/	di-
2AA/	.	.	.	.	2F/	.	2A/	-e
=69	=69	=69	=69	=69	=69	=69	=69	=69
2GG/	.	1B	ti-	.	2G/	-e	2.d/	ti-
*custos:F	*	*	*	*	*	*	*	*
2G\	ti-	.	.	.	2B\	ti-	.	.
.	.	.	.	.	.	.	4e/	-bi
*xywh-#669:1286,2823,4208,1112	*	*	*	*	*	*	*	*
!LO:LB:g=original	!	!	!	!	!	!	!	!
2F\	-bi	1c	-bi	.	2A/	-bi	2f\	.
2E\	gre-	.	.	.	2G/	gre-	1g	gre-
=70	=70	=70	=70	=70	=70	=70	=70	=70
1D	-ga-	1d	gre-	.	1A	-ga-	.	.
.	.	.	.	.	.	.	2f\	-ga-
1GG	-tos,	1d	-ga-	au-	1.G	-tos	2g\	-tos
.	.	.	.	.	.	.	1d	.
=71	=71	=71	=71	=71	=71	=71	=71	=71
2r	.	1B	-tos	.	.	.	.	.
2G\	ſer-	.	.	.	2B\	.	2e/	ſer-
2F\	-ua	1c	ſer-	.	2A/	ſer-	2f\	-ua
2E\	.	.	.	.	2G/	-ua	1g	vir-
=72	=72	=72	=72	=72	=72	=72	=72	=72
1D	vir-	1A	-ua	.	1d	uir-	.	.
.	.	.	.	.	.	.	2f\	.
1C	-go,	1c	uir-	.	2G/	-go	1e	.
.	.	.	.	.	1c	.	.	.
=73	=73	=73	=73	=73	=73	=73	=73	=73
2r	.	1G	-go	.	.	.	2d/	-go
*	*	*	*	*	*	*	*custos:f	*
2G\	in	.	.	.	2B\	.	2d/	in
*	*	*	*	*	*	*	*xywh-#119:5967,2152,4235,811	*
!	!	!	!	!	!	!	!LO:LB:g=original	!
2F\	lu-	1A	in	-xi-	2c\	.	1f	lu-
2D/	-ce(m)	.	.	.	2d\	in	.	.
=74	=74	=74	=74	=74	=74	=74	=74	=74
*	*	*	*	*	*custos:A	*	*	*
1A	.	1c	lu-	.	2c\	lu-	2e/	-cem
*	*	*	*	*	*xywh-#305:5928,2153,4247,784	*	*	*
!	!	!	!	!	!LO:LB:g=original	!	!	!
.	.	.	.	.	2A/	-ce(m)	2.a\	.
4D/	mun-	1A	-ce(m)	.	1d	mun-	.	.
4E/	.	.	.	.	.	.	4g\	.
4F\	-di	.	.	.	.	.	1f	mun-
4G\	.	.	.	.	.	.	.	.
=75	=75	=75	=75	=75	=75	=75	=75	=75
*	*	*custos:G	*	*	*	*	*	*
4A\	.	1c	mu(n)-	.	1A	-di,	.	.
4B\	.	.	.	.	.	.	.	.
1c	.	.	.	.	.	.	2e/	.
*	*	*xywh-#491:6070,2087,4159,825	*	*	*	*	*	*
!	!	!LO:LB:g=original	!	!	!	!	!	!
.	.	1G	-di	-li-	2r	.	1d	-di
*custos:c	*	*	*	*	*	*	*	*
2B\	.	.	.	.	2G/	qua	.	.
!LO:LB:g=original	!	!	!	!	!	!	!	!
=76	=76	=76	=76	=76	=76	=76	=76	=76
*xywh-#669:5925,643,4208,832	*	*	*	*	*	*	*	*
2c\	.	1F	qua	-o	1A	pro-	2.f\	qua
1F	.	.	.	.	.	.	.	.
.	.	.	.	.	.	.	4e/	.
.	.	1F	pro-	ad-	2.A/	-di-	2c/	.
4E/	qua	.	.	.	.	.	2d/	pro-
4D/	.	.	.	.	4B\	.	.	.
=77	=77	=77	=77	=77	=77	=77	=77	=77
*	*	*lig	*	*	*	*	*lig	*
2C/	.	1E	-diſ-	.	2.c\	.	1e	-diſ-
2C/	pro-	.	.	.	.	.	.	.
.	.	.	.	.	4B\	.	.	.
1D	-diſ-	1F	.	.	1A	.	1d	.
*	*	*Xlig	*	*	*	*	*Xlig	*
=78	=78	=78	=78	=78	=78	=78	=78	=78
2GG/	-ti	1D	-ti,	.	2G/	-ſti	2d/	-ti
2D/	pa-	.	.	.	2A/	pa-	2f/	pa-
2C/	-ri-	1G	pa-	-iu-	2c\	-ri-	2e/	-ri-
2E/	-tu-	.	.	.	2B\	-tu-	2g\	-tu-
=79	=79	=79	=79	=79	=79	=79	=79	=79
2D/	-ra	1A	-ri-	.	2d\	-ra	2f\	-ra
2F\	ce-	.	.	.	2c\	ce-	2a\	c(ae)-
2E/	-lo-	1c	-tu-	.	1e	-lo-	2g\	-lo-
*	*	*	*	*	*	*	*custos:f	*
2C/	-ru(m)	.	.	.	.	.	2e/	-ru(m)
!	!	!	!	!	!	!	!LO:LB:g=original	!
=80	=80	=80	=80	=80	=80	=80	=80	=80
*	*	*	*	*	*custos:A	*	*	*
*	*	*	*	*	*	*	*lig	*
*	*	*	*	*	*	*	*xywh-#119:5985,2865,4101,828	*
1D	lu-	1A	-ra	-ve-	2d\	-ru(m)	1f	lu-
*	*	*	*	*	*xywh-#305:5908,2860,3788,854	*	*	*
!	!	!	!	!	!LO:LB:g=original	!	!	!
.	.	.	.	.	2.A/	lu-	.	.
1AA	-me(n)	1c	ce-	.	.	.	1e	.
.	.	.	.	.	4B\	.	.	.
.	.	.	.	.	1c	.	.	.
*	*	*	*	*	*	*	*Xlig	*
=81	=81	=81	=81	=81	=81	=81	=81	=81
2r	.	1G	-lo-	.	.	.	1d	-me(n),
2GG/	ce-	.	.	.	2B\	.	.	.
*	*	*lig	*	*	*	*	*	*
2C/	-lo-	1E	-rum	.	1c	-me(n),	2r	.
2AA/	-ru(m)	.	.	.	.	.	2c/	c(ae)-
=82	=82	=82	=82	=82	=82	=82	=82	=82
*custos:GG	*	*	*	*	*	*	*	*
1D	lu-	1F	.	.	1A	ce-	2f\	-lo-
.	.	.	.	.	.	.	2d/	-rum
*	*	*Xlig	*	*	*	*	*	*
*xywh-#669:5925,1453,2138,775	*	*	*	*	*	*	*	*
!LO:LB:g=original	!	!	!	!	!	!	!	!
1GG	-men,	1G	lu-	.	1B	-lo-	1.g	.
=83	=83	=83	=83	=83	=83	=83	=83	=83
!	!	!LO:TX:a:t=33	!	!	!	!	!	!
1.C	.	[0El	-men	-mur	1G	-rum	.	.
.	.	.	.	.	.	.	2f\	lu-
.	.	.	.	.	1.c	.	2e/	.
2BB/	ce-	.	.	.	.	.	2d/	.
=84	=84	=84	=84	=84	=84	=84	=84	=84
2AA/	-lo-	0E_	.	.	.	.	2c/	.
2GG/	-rum	.	.	.	2B\	lu-	2G/	.
1AA	lu-	.	.	.	1A	.	1c	.
=85	=85	=85	=85	=85	=85	=85	=85	=85
!	!	!	!	!	!LO:TX:t=P:problem=# below	!	!	!
!LO:TX:a:t=37	!	!	!	!	!LO:TX:a:t=37	!	!	!
0EEl	-men	0E]	.	.	0G#X;l\	-men	0B;l\	-men
==	==	==	==	==	==	==	==	==
*-	*-	*-	*-	*-	*-	*-	*-	*-
!!!system-decoration: [(s1,s2,s3,s4)]
!!!RDF**kern: l = terminal long
!!!ENC: Mateusz Solarz
!!!END: 2022-02-28
!!!ENC: Natalia Wrzos
!!!END: 2022-03-12
!!!YEC: Copyright 2022 Narodowy Instytut Fryderyka Chopina (https://polishscores.org)
!!!YEM: Licence CC BY 4.0 (https://creativecommons.org/licenses/by/4.0)
!!!IIIF: https://repozytorium.nifc.pl/islandora/object/pl-kk%3A1/datastream/IIIF/view
!!!ENC-iiif: Elżbieta Cabała
!!!END-iiif: 2022-09-03
